X:1
T:Title
%%score { ( 1 3 ) | 2 }
L:1/8
M:4/4
K:Ab
V:1 treble nm="Grand Piano"
V:3 treble 
V:2 bass 
V:1
 z4 z2[Q:1/4=104] [CE]2 | [CE]2 [CA]2 [CA]2 [DB]2 | c2 c2 c2 d2 | e2 A2 G2 A2 |[M:3/4] [GB]6 | %5
[M:1/4] c2 |[M:4/4] d2 d2 d2 B2 | c2 d2 e2 [Ec]2 | [EB]2 [EB]2 [=Dc]2 [DB]2 |[M:3/4] [G,E]6 | %10
[M:1/4] [A,EA]>[EB] |[M:4/4] [Ec]2 [Ec]2 [Ec]>[DB] [CA][DF] | [CE]>[DF] [CE][A,C] [CE]2 [EA]>B | %13
 z2 e4 z2 | z4 B2[K:bass][K:treble] z2 | [Ec]2 [Ec]2 [Ec]>[DB] [CA][DF] | %16
 [CE]>[DF] [CE]C [CE]2 [EA]>B | z2 e4 z2 |[M:7/8] [Ec]2 [DB]2 [CA]3 |] %19
V:2
 z4 z2 [A,,A,]2 | [A,,A,]2 [A,,A,]2 [A,,A,]2 [A,,A,]2 | [A,E]2 [A,E]2 [A,E]2 [A,B,E]2 | %3
 [A,CE]2 [A,CE]2 [B,DE]2 [A,CE]2 |[M:3/4] [E,E]6 |[M:1/4] [E,A,E]2 | %6
[M:4/4] [E,B,E]2 [E,B,E]2 [E,B,E]2 [E,G,E]2 | [A,E]2 [A,B,E]2 [A,CE]2 [A,,A,]2 | %8
 [B,,G,]2 [B,,G,]2 [B,,A,]2 [B,,A,]2 |[M:3/4] E,4- E,D, |[M:1/4] C,>[B,,G,] | %11
[M:4/4] [A,,A,]2 [A,,A,]2 [A,,A,]>[A,,A,] [A,,A,][A,,A,] | %12
 [A,,A,]>[A,,A,] [A,,A,][A,,E,] [A,,A,]2 [C,A,]>[E,G,E] | %13
 [A,E]2 [A,CA]>[A,C] [A,C]2 [A,E][K:bass][A,C] | [E,A,E]2 [E,G,E]2 .[E,G,E]2 [C,A,]>[B,,G,] | %15
 [A,,A,]2 [A,,A,]2 [A,,A,]>[A,,A,] [A,,A,][A,,A,] | %16
 [A,,A,]>[A,,A,] [A,,A,][A,,A,] [A,,A,]2 [C,A,]>[E,G,E] | %17
 [A,E]2 [A,CA]>[K:bass][A,C] [A,C]2 [A,E][C,A,] |[M:7/8] [E,A,]2 [E,G,]2 [A,,A,]3 |] %19
V:3
 x8 | x8 | x8 | x8 |[M:3/4] x6 |[M:1/4] x2 |[M:4/4] x8 | x8 | x8 |[M:3/4] x6 |[M:1/4] x2 | %11
[M:4/4] x8 | x8 | c2 z z/ A/ A2 cA | c2 B2 z[K:bass] D,[K:treble] [EA]>[EB] | x8 | x8 | %17
 c2 z z/ A/ A2 c[EA] |[M:7/8] x7 |] %19

